app/assets/images/pppo.svg

<?xml version="1.0" encoding="UTF-8"?>
<svg width="46px" height="42px" viewBox="0 0 46 42" version="1.1" xmlns="http://www.w3.org/2000/svg" xmlns:xlink="http://www.w3.org/1999/xlink">
    <!-- Generator: Sketch 45.1 (43504) - http://www.bohemiancoding.com/sketch -->
    <title>pppo</title>
    <desc>Created with Sketch.</desc>
    <defs>
        <polygon id="path-1" points="0.0279974602 41.9681929 0.0279974602 0.326637036 45.5425353 0.326637036 45.5425353 41.9681929"></polygon>
    </defs>
    <g id="Customer-Service" stroke="none" stroke-width="1" fill="none" fill-rule="evenodd">
        <g id="CustomerService_Desktop" transform="translate(-483.000000, -411.000000)">
            <g id="pppo" transform="translate(479.000000, 408.000000)">
                <g id="noun_659293" transform="translate(4.000000, 3.000000)">
                    <mask id="mask-2" fill="white">
                        <use xlink:href="#path-1"></use>
                    </mask>
                    <g id="Clip-2"></g>
                    <path d="M32.9436782,13.345456 L32.4770538,12.2722201 C32.4770538,12.2255576 32.4303914,12.2255576 32.383729,12.2255576 L30.983856,12.2255576 C30.9371935,12.2255576 30.9371935,12.2255576 30.8905311,12.2722201 L30.4239068,13.345456 C30.4239068,13.3921185 30.4239068,13.4387809 30.4239068,13.4387809 L31.1705057,14.2787047 L30.6105565,16.5185015 L32.3370665,15.2586158 L32.1504168,14.2787047 L32.8970157,13.4387809 C32.9436782,13.3921185 32.9436782,13.345456 32.9436782,13.345456" id="Fill-1" fill="#000000" mask="url(#mask-2)"></path>
                    <path d="M27.9041353,4.4329312 C28.3707597,4.66624337 29.2106835,4.9928804 30.1439322,4.9928804 C30.8438687,4.9928804 31.5438052,4.80623067 32.2437417,4.33960633 C32.3370665,4.2929439 34.0169142,3.07972062 35.4167872,4.2929439 C35.510112,4.66624337 35.6034369,5.03954284 35.6034369,5.41284231 C35.6034369,7.55931426 33.8769269,9.2858243 31.7304549,9.2858243 C29.583983,9.2858243 27.8574729,7.55931426 27.8574729,5.41284231 C27.8108105,5.03954284 27.8574729,4.75956824 27.9041353,4.4329312 Z M31.6837925,10.4057227 C34.4368761,10.4057227 36.7233353,8.16592589 36.7233353,5.36617987 C36.7233353,2.61309629 34.4835385,0.326637036 31.6837925,0.326637036 C28.9307089,0.326637036 26.6442496,2.56643385 26.6442496,5.36617987 C26.6442496,8.16592589 28.9307089,10.4057227 31.6837925,10.4057227 L31.6837925,10.4057227 Z" id="Fill-3" fill="#000000" mask="url(#mask-2)"></path>
                    <path d="M40.6896422,18.5716486 L40.6896422,16.565164 C40.6896422,14.1387174 38.72982,12.2255576 36.3500358,12.2255576 L36.2100485,12.2255576 L34.2502263,18.618311 L33.1769903,18.618311 L32.9903406,17.8250497 L31.8237798,18.618311 L30.7505438,18.618311 L32.8036909,17.1717756 L32.5237163,15.9585523 L30.4239068,17.4517502 L30.1439322,18.618311 L29.0706962,18.618311 L27.2041988,12.2255576 L27.0175491,12.2255576 C24.5911025,12.2255576 22.6779428,14.1853798 22.6779428,16.565164 L22.6779428,18.5716486 L15.7252402,18.5716486 L15.1186285,17.218438 L18.7116359,17.218438 C19.8315343,17.218438 20.764783,16.2851894 20.764783,15.1652909 L20.764783,7.51265182 C20.764783,6.34609098 19.8315343,5.45950474 18.7116359,5.45950474 L6.90604018,5.45950474 C5.73947934,5.45950474 4.8528931,6.39275341 4.8528931,7.51265182 L4.8528931,15.1186285 C4.8528931,16.2851894 5.78614178,17.1717756 6.90604018,17.1717756 L10.4057227,17.1717756 L9.79911107,18.5249862 L0,18.5249862 L0,24.2644655 L1.49319788,24.2644655 L1.49319788,41.9961903 L44.0493374,41.9961903 L44.0493374,24.2644655 L45.5425353,24.2644655 L45.5425353,18.5716486 L40.6896422,18.5716486" id="Fill-4" fill="#000000" mask="url(#mask-2)"></path>
                </g>
            </g>
        </g>
    </g>
</svg>

<svg width="46" height="42" xmlns="http://www.w3.org/2000/svg" xmlns:xlink="http://www.w3.org/1999/xlink"><defs><path id="a" d="M.028 41.968V.327h45.515v41.641z"/><path id="c" d="M.028 41.968V.327h45.515v41.641z"/><path id="e" d="M.028 41.968V.327h45.515v41.641z"/></defs><g fill="none" fill-rule="evenodd"><mask id="b" fill="#fff"><use xlink:href="#a"/></mask><path d="M32.944 13.345l-.467-1.073c0-.046-.047-.046-.093-.046h-1.4c-.047 0-.047 0-.093.046l-.467 1.073v.094l.747.84-.56 2.24 1.726-1.26-.187-.98.747-.84c.047-.047.047-.094.047-.094" fill="#000" fill-rule="nonzero" mask="url(#b)"/><mask id="d" fill="#fff"><use xlink:href="#c"/></mask><path d="M27.904 4.433c.467.233 1.307.56 2.24.56.7 0 1.4-.187 2.1-.653.093-.047 1.773-1.26 3.173-.047.093.373.186.747.186 1.12a3.863 3.863 0 0 1-3.873 3.873 3.863 3.863 0 0 1-3.873-3.873c-.046-.373 0-.653.047-.98zm3.78 5.973c2.753 0 5.04-2.24 5.04-5.04 0-2.753-2.24-5.04-5.04-5.04-2.753 0-5.04 2.24-5.04 5.04s2.287 5.04 5.04 5.04z" fill="#000" fill-rule="nonzero" mask="url(#d)"/><mask id="f" fill="#fff"><use xlink:href="#e"/></mask><path d="M40.69 18.572v-2.007c0-2.426-1.96-4.34-4.34-4.34h-.14l-1.96 6.393h-1.073l-.187-.793-1.166.793H30.75l2.053-1.446-.28-1.213-2.1 1.493-.28 1.166H29.07l-1.867-6.392h-.186a4.331 4.331 0 0 0-4.34 4.34v2.006h-6.953l-.606-1.354h3.593c1.12 0 2.053-.933 2.053-2.053V7.513a2.041 2.041 0 0 0-2.053-2.053H6.906a2.041 2.041 0 0 0-2.053 2.053v7.606c0 1.166.933 2.053 2.053 2.053h3.5l-.607 1.353H0v5.74h1.493v17.731H44.05V24.264h1.494v-5.692H40.69" fill="#000" fill-rule="nonzero" mask="url(#f)"/></g></svg>
